packages/kaspersky-hexa-ui-icons/src/iconsSVGs/16/ArrowsVertical.svg

<svg width="16" height="16" viewBox="0 0 16 16" fill="none" xmlns="http://www.w3.org/2000/svg">
<path d="M7.54035 1.18281C7.79419 0.928972 8.20575 0.928972 8.45959 1.18281L11.2851 4.00835C11.539 4.26219 11.539 4.67375 11.2852 4.92759C11.0313 5.18143 10.6198 5.18144 10.3659 4.9276L8.64998 3.21167V12.7882L10.3659 11.0722C10.6198 10.8184 11.0313 10.8184 11.2852 11.0722C11.539 11.3261 11.539 11.7376 11.2852 11.9915L8.45959 14.817C8.20575 15.0709 7.7942 15.0709 7.54036 14.817L4.7148 11.9915C4.46096 11.7376 4.46096 11.3261 4.7148 11.0722C4.96864 10.8184 5.38019 10.8184 5.63404 11.0722L7.34998 12.7882V3.21166L5.63403 4.92759C5.38019 5.18143 4.96863 5.18143 4.71479 4.92759C4.46095 4.67374 4.46095 4.26219 4.7148 4.00835L7.54035 1.18281Z" fill="black"/>
</svg>

<svg xmlns="http://www.w3.org/2000/svg" width="16" height="16" fill="none" viewBox="0 0 16 16"><path fill="#000" d="M7.5404 1.183a.65.65 0 0 1 .9192 0l2.8256 2.8255a.65.65 0 0 1-.9193.9192L8.65 3.2117v9.5766l1.7159-1.7159a.65.65 0 1 1 .9193.9192l-2.8256 2.8255a.65.65 0 0 1-.9192 0l-2.8256-2.8255a.65.65 0 1 1 .9193-.9192l1.716 1.7159V3.2118l-1.716 1.716a.65.65 0 1 1-.9193-.9193z"/></svg>
